X:60
T:The Wexford Lasses
R:reel
S:James Byrne
N:From a tape of James Byrne
Z:Transcribed by Larry Sanger
M:4/4
L:1/8
K:D
dcdA BFAF|EBeg fdec|dzcA BdAF|GBAG FDDA|
dcdA BFAF|EBeg fdec|defd cdec|dBAG FDDg||
fedc dfaf|gfga bgeg|fd{e}dc dfaf|g/a/b eg fddg|
fedc dfaf|gfgb agef|g/g/g fa gbag|fgef dgfe||
